packages/foundations/assets/icons/functional/images/environment/snow_flake_12.svg

<svg width="12" height="12" viewBox="0 0 12 12" fill="none" xmlns="http://www.w3.org/2000/svg">
<g clip-path="url(#clip0_232_215)">
<path fill-rule="evenodd" clip-rule="evenodd" d="M6.00257 1.35001C6.23039 1.35001 6.45345 1.5331 6.44847 1.80001L6.45206 2.51341L6.88438 2.08181C7.04414 1.92205 7.32145 1.89659 7.50074 2.05962C7.68003 2.22266 7.72149 2.49117 7.52077 2.7182L6.45206 3.78601V5.22061L7.80446 4.44001L8.16631 3.09091C8.23064 2.85085 8.47739 2.70838 8.71745 2.77271C8.93568 2.83118 9.10446 3.04179 9.03564 3.32384L8.90666 3.80341L9.41488 3.51029C9.63011 3.38603 9.90533 3.45977 10.0296 3.67501C10.1435 3.8723 10.0963 4.1503 9.86488 4.28972L9.21746 4.66321L9.91745 4.85117C10.1536 4.90378 10.296 5.16167 10.2356 5.4023C10.1753 5.64294 9.96117 5.78743 9.68451 5.7205L8.11466 5.29981L6.90266 5.99941L8.33546 6.82681L9.68451 6.46591C9.92457 6.40158 10.1713 6.54404 10.2356 6.7841C10.2941 7.00234 10.1744 7.26631 9.91745 7.33524L9.43766 7.46341L9.86488 7.71029C10.0801 7.83456 10.1539 8.10977 10.0296 8.32501C9.91568 8.5223 9.65924 8.62507 9.41488 8.48972L8.84786 8.16181L9.03564 8.86257C9.09412 9.0808 8.97345 9.33978 8.74865 9.4137C8.52384 9.48762 8.25095 9.36581 8.16631 9.0955L7.74506 7.52521L6.45206 6.77881V8.40001L7.52077 9.4682C7.69651 9.64394 7.69651 9.92886 7.52077 10.1046C7.36101 10.2644 7.08796 10.2904 6.90266 10.1282L6.45206 9.67201L6.45257 10.2C6.45257 10.4485 6.2511 10.65 6.00257 10.65C5.77476 10.65 5.55257 10.4759 5.55206 10.2V9.67261L5.12077 10.1046C4.93119 10.2932 4.64626 10.2644 4.48438 10.1046C4.32249 9.94484 4.29788 9.67261 4.48438 9.4682L5.55206 8.40001V6.77941L4.25906 7.52581L3.83884 9.0955C3.77451 9.33556 3.52776 9.47802 3.2877 9.4137C3.06947 9.35522 2.90065 9.11672 2.95638 8.88579L3.15686 8.16241L2.59027 8.48972C2.37504 8.61398 2.09982 8.54024 1.97556 8.32501C1.86165 8.12771 1.89722 7.85727 2.11525 7.73059L2.56706 7.46341L2.0877 7.33524C1.86947 7.27676 1.68857 7.0374 1.7695 6.7841C1.85044 6.53081 2.07492 6.40902 2.32064 6.46591L3.66926 6.82681L5.10266 5.99941L3.89006 5.29921L2.32064 5.7205C2.08058 5.78483 1.82725 5.63221 1.7695 5.4023C1.71176 5.1724 1.82725 4.91819 2.06769 4.85117L2.78786 4.66321L2.14027 4.28972C1.92504 4.16545 1.85129 3.89024 1.97556 3.67501C2.08946 3.47771 2.35547 3.38166 2.59027 3.51029L3.09746 3.80281L2.9695 3.32384C2.91103 3.10561 3.00602 2.84211 3.27154 2.77271C3.53707 2.70331 3.76674 2.84211 3.83884 3.09091L4.19966 4.43941L5.55206 5.22001V3.78601L4.48438 2.7182C4.30864 2.54247 4.30864 2.25754 4.48438 2.08181C4.64414 1.92205 4.91806 1.89805 5.10266 2.05962L5.55206 2.51281L5.55257 1.80001C5.55257 1.55148 5.75405 1.35001 6.00257 1.35001Z" fill="#1A1C1F"/>
</g>
<defs>
<clipPath id="clip0_232_215">
<rect width="12" height="12" fill="white"/>
</clipPath>
</defs>
</svg>

<svg xmlns="http://www.w3.org/2000/svg" width="12" height="12" fill="none"><g clip-path="url(#a)"><path fill="#1A1C1F" fill-rule="evenodd" d="M6.003 1.35c.227 0 .45.183.445.45l.004.713.432-.431a.453.453 0 0 1 .617-.022c.179.163.22.431.02.658L6.452 3.786v1.435l1.352-.781.362-1.35a.45.45 0 0 1 .551-.317c.219.058.387.269.319.55l-.13.48.509-.293a.45.45 0 0 1 .45.78l-.648.373.7.188c.237.053.379.31.319.551-.06.24-.275.385-.551.319L8.115 5.3 6.903 6l1.432.827 1.35-.361a.45.45 0 1 1 .232.87l-.48.127.428.247a.45.45 0 1 1-.45.78l-.567-.328.188.7a.464.464 0 0 1-.287.552.466.466 0 0 1-.583-.319l-.42-1.57-1.294-.746V8.4l1.069 1.068a.45.45 0 0 1 0 .637.456.456 0 0 1-.618.023l-.45-.456v.528a.45.45 0 0 1-.45.45.446.446 0 0 1-.45-.45v-.527l-.432.432a.453.453 0 0 1-.637 0 .45.45 0 0 1 0-.637L5.552 8.4V6.78l-1.293.746-.42 1.57a.45.45 0 0 1-.551.318c-.219-.059-.387-.297-.332-.528l.2-.724-.566.328a.45.45 0 0 1-.614-.165c-.114-.197-.079-.468.14-.594l.451-.268-.48-.128c-.218-.058-.398-.298-.318-.55a.45.45 0 0 1 .552-.32l1.348.362 1.434-.828-1.213-.7-1.57.422a.455.455 0 0 1-.55-.319c-.058-.23.057-.484.298-.55l.72-.189-.648-.373a.45.45 0 1 1 .45-.78l.507.293-.127-.48c-.059-.217.036-.48.302-.55.265-.07.495.07.567.318l.36 1.348 1.353.781V3.786L4.484 2.718a.45.45 0 0 1 0-.636.457.457 0 0 1 .619-.022l.45.453V1.8a.45.45 0 0 1 .45-.45" clip-rule="evenodd"/></g><defs><clipPath id="a"><path fill="#fff" d="M0 0h12v12H0z"/></clipPath></defs></svg>
